src/icons/solid/gun-squirt.svg

<svg xmlns="http://www.w3.org/2000/svg" viewBox="0 0 576 512"><!--! Font Awesome Pro 6.7.2 by @fontawesome - https://fontawesome.com License - https://fontawesome.com/license (Commercial License) Copyright 2024 Fonticons, Inc. --><path d="M128 56c0-13.3-10.7-24-24-24S80 42.7 80 56l0 9.3C34.6 72.9 0 112.4 0 160c0 47.3 34.3 86.7 79.4 94.6L33 440.2c-2.4 9.6-.2 19.7 5.8 27.5S54.1 480 64 480l104 0c14.7 0 27.5-10 31-24.2L219 376l53 0 0 16c0 13.3 10.7 24 24 24s24-10.7 24-24l0-40 0-40c0-13.3-10.7-24-24-24s-24 10.7-24 24l0 16-41 0 18-72 199 0c41.8 0 77.4-26.7 90.5-64l13.5 0c13.3 0 24-10.7 24-24l0-16c0-13.3-10.7-24-24-24l-13.5 0C525.4 90.7 489.8 64 448 64L128 64l0-8zM96 128l352 0c17.7 0 32 14.3 32 32s-14.3 32-32 32L96 192c-17.7 0-32-14.3-32-32s14.3-32 32-32z"/></svg>

<svg xmlns="http://www.w3.org/2000/svg" viewBox="0 0 576 512"><!--! Font Awesome Pro 6.5.2 by @fontawesome - https://fontawesome.com License - https://fontawesome.com/license (Commercial License) Copyright 2024 Fonticons, Inc. --><path d="M128 56c0-13.3-10.7-24-24-24S80 42.7 80 56v9.3C34.6 72.9 0 112.4 0 160c0 47.3 34.3 86.7 79.4 94.6L33 440.2c-2.4 9.6-.2 19.7 5.8 27.5S54.1 480 64 480H168c14.7 0 27.5-10 31-24.2L219 376h53v16c0 13.3 10.7 24 24 24s24-10.7 24-24V352 312c0-13.3-10.7-24-24-24s-24 10.7-24 24v16H231l18-72H448c41.8 0 77.4-26.7 90.5-64H552c13.3 0 24-10.7 24-24V152c0-13.3-10.7-24-24-24H538.5C525.4 90.7 489.8 64 448 64H128V56zM96 128H448c17.7 0 32 14.3 32 32s-14.3 32-32 32H96c-17.7 0-32-14.3-32-32s14.3-32 32-32z"/></svg>
